X:1
T:Big Phat Ragg
C:Sarah Gowan
M:C|
K:G
"G"G2d2"Gdim"^c2d2|"G"G2d2"Gdim"^c2d2|"C7"e2_Be- eBe2|"G"d6BA|"G"G2d2"Gdim"^c2d2|
"G"G2d2"Gdim"^c2d2|"C7"e3e- e^de2|"D7"f6ef|"G"g2>e2d2B2|"Bm"d2B2A2<G2|"Am"A2GA- AGA2|
"C#dim"_B6BA|"G"G2g2"F#"f2"F"=f2|"E7"e4B4|"A7"A2Ad- d"D7"BA2|"G"G6GF||
"Em"E2B2"D/B"G2F2|"Em"E2B2"D"G2F2|"Em"E3E-E2B,2|"Em"E6_E2|"D"D2A2"A7"F2E2|"D"D2A2"A7"F2E2|
"D"D2D2E2=F2|"D7"F6GF|"Em"E2B2"D"G2F2|"Em"E2B2"D"G2F2|"Em"E3E-E2B,2|
"Em"E6F2|"G"G2d2"F#"^c2"F"d2|"E7"e4B4|"A7"A2A"D7"d- dBA2|"G"G6z2|]
W:  2006 Sarah Gowan. All rights reserved. Used by permission.
W:Written for the Big Phat American K-Lee Band.
